svg/building/taj_mahal_fill.svg

<?xml version="1.0" encoding="UTF-8"?>
<svg width="24px" height="24px" viewBox="0 0 24 24" version="1.1" xmlns="http://www.w3.org/2000/svg" xmlns:xlink="http://www.w3.org/1999/xlink">
    <title>taj_mahal_fill</title>
    <g id="页面-1" stroke="none" stroke-width="1" fill="none" fill-rule="evenodd">
        <g id="Building" transform="translate(-384.000000, -240.000000)">
            <g id="taj_mahal_fill" transform="translate(384.000000, 240.000000)">
                 <path d="M24,0 L24,24 L0,24 L0,0 L24,0 Z M12.5934901,23.257841 L12.5819402,23.2595131 L12.5108777,23.2950439 L12.4918791,23.2987469 L12.4918791,23.2987469 L12.4767152,23.2950439 L12.4056548,23.2595131 C12.3958229,23.2563662 12.3870493,23.2590235 12.3821421,23.2649074 L12.3780323,23.275831 L12.360941,23.7031097 L12.3658947,23.7234994 L12.3769048,23.7357139 L12.4804777,23.8096931 L12.4953491,23.8136134 L12.4953491,23.8136134 L12.5071152,23.8096931 L12.6106902,23.7357139 L12.6232938,23.7196733 L12.6232938,23.7196733 L12.6266527,23.7031097 L12.609561,23.275831 C12.6075724,23.2657013 12.6010112,23.2592993 12.5934901,23.257841 L12.5934901,23.257841 Z M12.8583906,23.1452862 L12.8445485,23.1473072 L12.6598443,23.2396597 L12.6498822,23.2499052 L12.6498822,23.2499052 L12.6471943,23.2611114 L12.6650943,23.6906389 L12.6699349,23.7034178 L12.6699349,23.7034178 L12.678386,23.7104931 L12.8793402,23.8032389 C12.8914285,23.8068999 12.9022333,23.8029875 12.9078286,23.7952264 L12.9118235,23.7811639 L12.8776777,23.1665331 C12.8752882,23.1545897 12.8674102,23.1470016 12.8583906,23.1452862 L12.8583906,23.1452862 Z M12.1430473,23.1473072 C12.1332178,23.1423925 12.1221763,23.1452606 12.1156365,23.1525954 L12.1099173,23.1665331 L12.0757714,23.7811639 C12.0751323,23.7926639 12.0828099,23.8018602 12.0926481,23.8045676 L12.108256,23.8032389 L12.3092106,23.7104931 L12.3186497,23.7024347 L12.3186497,23.7024347 L12.3225043,23.6906389 L12.340401,23.2611114 L12.337245,23.2485176 L12.337245,23.2485176 L12.3277531,23.2396597 L12.1430473,23.1473072 Z" id="MingCute" fill-rule="nonzero"></path>
                <path d="M12,2 C12.4296417,2 12.8064299,2.27353563 12.9445792,2.6715472 L12.9762,2.78307 C13.1268,3.46095857 13.5643714,3.79895571 14.1197038,4.09630644 L14.5629269,4.32073186 C15.2065355,4.64239675 16.0510231,5.09938231 16.7677,5.95921 C17.5333,6.87648 18,8.03426 18,9.3 C18,10.097 17.8147,10.8546 17.4836,11.5367 C17.41875,11.67025 17.33815,11.79795 17.2536125,11.923325 L17,12.296 L17,19 L19,19 L19,14 C19,13.8831 19.0201,13.7708 19.057,13.6665 C18.7172,13.3915 18.5,12.9711 18.5,12.5 C18.5,12.18935 18.640625,11.6898125 18.8427734,11.1867383 L18.9857856,10.8528655 C19.3116319,10.1371535 19.7291667,9.5 20,9.5 C20.2708333,9.5 20.6883681,10.1371535 21.0142144,10.8528655 L21.1572266,11.1867383 C21.359375,11.6898125 21.5,12.18935 21.5,12.5 C21.5,12.9711 21.2828,13.3915 20.943,13.6665 C20.9676,13.7360333 20.9847333,13.8091222 20.9934222,13.8847593 L21,14 L21,19 C21.5523,19 22,19.4477 22,20 C22,20.51285 21.613973,20.9355092 21.1166239,20.9932725 L21,21 L3,21 C2.44772,21 2,20.5523 2,20 C2,19.48715 2.38604429,19.0644908 2.88337975,19.0067275 L3,19 L3,14 C3,13.8831 3.02007,13.7708 3.05695,13.6665 C2.71721,13.3915 2.5,12.9711 2.5,12.5 C2.5,12.18935 2.640625,11.6898125 2.84277344,11.1867383 L2.98578559,10.8528655 C3.31163194,10.1371535 3.72916667,9.5 4,9.5 C4.27083333,9.5 4.68836806,10.1371535 5.01421441,10.8528655 L5.15722656,11.1867383 C5.359375,11.6898125 5.5,12.18935 5.5,12.5 C5.5,12.9711 5.28279,13.3915 4.94305,13.6665 C4.96763667,13.7360333 4.98475222,13.8091222 4.99343074,13.8847593 L5,14 L5,19 L6.99963,19 L6.99963,12.2958 L6.74623125,11.923225 C6.6617775,11.797875 6.58126,11.6702 6.51645,11.5367 C6.18532,10.8546 6,10.097 6,9.3 C6,8.03455 6.46624,6.87664 7.23189,5.95925 C7.88860692,5.17236923 8.6526129,4.72290663 9.2709634,4.40568706 L9.59228,4.24454 C10.2318986,3.92773 10.766306,3.62161184 10.980222,2.94576984 L11.0238,2.78307 C11.1255,2.32553 11.5313,2 12,2 Z M12,14 C11.75,14 11,15 11,15.5 L11,19 L13,19 L13,15.5 C13,15 12.25,14 12,14 Z" id="形状" fill="#09244B"></path>
            </g>
        </g>
    </g>
</svg>

<svg xmlns="http://www.w3.org/2000/svg" width="24" height="24"><g fill="none" fill-rule="evenodd"><path d="M24 0v24H0V0h24ZM12.593 23.258l-.011.002-.071.035-.02.004-.014-.004-.071-.035c-.01-.004-.019-.001-.024.005l-.004.01-.017.428.005.02.01.013.104.074.015.004.012-.004.104-.074.012-.016.004-.017-.017-.427c-.002-.01-.009-.017-.017-.018Zm.265-.113-.013.002-.185.093-.01.01-.003.011.018.43.005.012.008.007.201.093c.012.004.023 0 .029-.008l.004-.014-.034-.614c-.003-.012-.01-.02-.02-.022Zm-.715.002a.023.023 0 0 0-.027.006l-.006.014-.034.614c0 .012.007.02.017.024l.015-.002.201-.093.01-.008.004-.011.017-.43-.003-.012-.01-.01-.184-.092Z"/><path fill="#09244B" d="M12 2a1 1 0 0 1 .945.672l.031.111c.15.678.588 1.016 1.144 1.313l.443.225c.644.321 1.488.778 2.205 1.638A5.195 5.195 0 0 1 18 9.3c0 .797-.185 1.555-.516 2.237a3.201 3.201 0 0 1-.23.386l-.254.373V19h2v-5c0-.117.02-.23.057-.334A1.497 1.497 0 0 1 18.5 12.5c0-.31.14-.81.343-1.313l.143-.334c.326-.716.743-1.353 1.014-1.353.27 0 .688.637 1.014 1.353l.143.334c.202.503.343 1.002.343 1.313 0 .471-.217.892-.557 1.166.025.07.042.143.05.219L21 14v5a1 1 0 0 1 .117 1.993L21 21H3a1 1 0 0 1-.117-1.993L3 19v-5c0-.117.02-.23.057-.334A1.497 1.497 0 0 1 2.5 12.5c0-.31.14-.81.343-1.313l.143-.334C3.312 10.137 3.729 9.5 4 9.5c.27 0 .688.637 1.014 1.353l.143.334c.202.503.343 1.002.343 1.313 0 .471-.217.892-.557 1.166.025.07.042.143.05.219L5 14v5h2v-6.704l-.254-.373a3.206 3.206 0 0 1-.23-.386A5.105 5.105 0 0 1 6 9.3c0-1.265.466-2.423 1.232-3.34.657-.788 1.42-1.237 2.039-1.554l.321-.161c.64-.317 1.174-.623 1.388-1.3l.044-.162A1 1 0 0 1 12 2Zm0 12c-.25 0-1 1-1 1.5V19h2v-3.5c0-.5-.75-1.5-1-1.5Z"/></g></svg>
